svgs/regular/waffle.svg

<svg xmlns="http://www.w3.org/2000/svg" viewBox="0 0 512 512"><!--! Font Awesome Pro 6.6.0 by @fontawesome - https://fontawesome.com License - https://fontawesome.com/license (Commercial License) Copyright 2024 Fonticons, Inc. --><path d="M464 256A208 208 0 1 0 48 256a208 208 0 1 0 416 0zM0 256a256 256 0 1 1 512 0A256 256 0 1 1 0 256zM176 112l0 32 64 0 0-32c0-8.8 7.2-16 16-16s16 7.2 16 16l0 32 64 0 0-32c0-8.8 7.2-16 16-16s16 7.2 16 16l0 32 32 0c8.8 0 16 7.2 16 16s-7.2 16-16 16l-32 0 0 64 32 0c8.8 0 16 7.2 16 16s-7.2 16-16 16l-32 0 0 64 32 0c8.8 0 16 7.2 16 16s-7.2 16-16 16l-32 0 0 32c0 8.8-7.2 16-16 16s-16-7.2-16-16l0-32-64 0 0 32c0 8.8-7.2 16-16 16s-16-7.2-16-16l0-32-64 0 0 32c0 8.8-7.2 16-16 16s-16-7.2-16-16l0-32-32 0c-8.8 0-16-7.2-16-16s7.2-16 16-16l32 0 0-64-32 0c-8.8 0-16-7.2-16-16s7.2-16 16-16l32 0 0-64-32 0c-8.8 0-16-7.2-16-16s7.2-16 16-16l32 0 0-32c0-8.8 7.2-16 16-16s16 7.2 16 16zm0 128l64 0 0-64-64 0 0 64zm96 0l64 0 0-64-64 0 0 64zm0 32l0 64 64 0 0-64-64 0zm-32 0l-64 0 0 64 64 0 0-64z"/></svg>

<svg xmlns="http://www.w3.org/2000/svg" viewBox="0 0 512 512"><!--! Font Awesome Pro 6.5.2 by @fontawesome - https://fontawesome.com License - https://fontawesome.com/license (Commercial License) Copyright 2024 Fonticons, Inc. --><path d="M464 256A208 208 0 1 0 48 256a208 208 0 1 0 416 0zM0 256a256 256 0 1 1 512 0A256 256 0 1 1 0 256zM176 112v32l64 0V112c0-8.8 7.2-16 16-16s16 7.2 16 16v32h64V112c0-8.8 7.2-16 16-16s16 7.2 16 16v32h32c8.8 0 16 7.2 16 16s-7.2 16-16 16H368v64h32c8.8 0 16 7.2 16 16s-7.2 16-16 16H368v64h32c8.8 0 16 7.2 16 16s-7.2 16-16 16H368v32c0 8.8-7.2 16-16 16s-16-7.2-16-16V368H272v32c0 8.8-7.2 16-16 16s-16-7.2-16-16V368H176v32c0 8.8-7.2 16-16 16s-16-7.2-16-16V368H112c-8.8 0-16-7.2-16-16s7.2-16 16-16h32V272H112c-8.8 0-16-7.2-16-16s7.2-16 16-16h32V176H112c-8.8 0-16-7.2-16-16s7.2-16 16-16h32V112c0-8.8 7.2-16 16-16s16 7.2 16 16zm0 128l64 0V176l-64 0v64zm96 0h64V176H272v64zm0 32v64h64V272H272zm-32 0H176v64h64V272z"/></svg>
